src/main/webapp/scripts/pdfjs/v54530/web/images/altText_done.svg

<svg fill="none" height="13" viewBox="0 0 12 13" width="12" xmlns="http://www.w3.org/2000/svg"><path d="m6 .5c-.78793 0-1.56815.155195-2.2961.456723-.72795.301527-1.38939.743487-1.94654 1.300637s-.999109 1.21859-1.300637 1.94654-.456723 1.50817-.456723 2.2961.155195 1.56815.456723 2.2961.743487 1.3894 1.300637 1.9465c.55715.5572 1.21859.9991 1.94654 1.3007.72795.3015 1.50817.4567 2.2961.4567 1.5913 0 3.11742-.6321 4.2426-1.7574 1.1253-1.12518 1.7574-2.6513 1.7574-4.2426s-.6321-3.11742-1.7574-4.24264c-1.12518-1.12522-2.6513-1.75736-4.2426-1.75736zm-.94 8.4-2.1136-2.1144c-.09367-.09389-.14622-.22114-.14607-.35377.00015-.13262.05298-.25976.14687-.35343s.22114-.14622.35377-.14607c.13262.00015.25976.05298.35343.14687l1.6568 1.6576 3.0352-3.036c.09469-.0899.22075-.13927.35131-.13758.13056.0017.2553.05432.34763.14664.09232.09233.14494.21707.14664.34763.00169.13056-.04768.25662-.13758.35131l-3.492 3.4912z" fill="#fbfbfe"/></svg>

<svg width="12" height="13" viewBox="0 0 12 13" fill="none" xmlns="http://www.w3.org/2000/svg">
  <path d="M6 0.5C5.21207 0.5 4.43185 0.655195 3.7039 0.956723C2.97595 1.25825 2.31451 1.70021 1.75736 2.25736C1.20021 2.81451 0.758251 3.47595 0.456723 4.2039C0.155195 4.93185 0 5.71207 0 6.5C0 7.28793 0.155195 8.06815 0.456723 8.7961C0.758251 9.52405 1.20021 10.1855 1.75736 10.7426C2.31451 11.2998 2.97595 11.7417 3.7039 12.0433C4.43185 12.3448 5.21207 12.5 6 12.5C7.5913 12.5 9.11742 11.8679 10.2426 10.7426C11.3679 9.61742 12 8.0913 12 6.5C12 4.9087 11.3679 3.38258 10.2426 2.25736C9.11742 1.13214 7.5913 0.5 6 0.5ZM5.06 8.9L2.9464 6.7856C2.85273 6.69171 2.80018 6.56446 2.80033 6.43183C2.80048 6.29921 2.85331 6.17207 2.9472 6.0784C3.04109 5.98473 3.16834 5.93218 3.30097 5.93233C3.43359 5.93248 3.56073 5.98531 3.6544 6.0792L5.3112 7.7368L8.3464 4.7008C8.44109 4.6109 8.56715 4.56153 8.69771 4.56322C8.82827 4.56492 8.95301 4.61754 9.04534 4.70986C9.13766 4.80219 9.19028 4.92693 9.19198 5.05749C9.19367 5.18805 9.1443 5.31411 9.0544 5.4088L5.5624 8.9H5.06Z" fill="#FBFBFE"/>
</svg>
